web-components-icons/e900-file/SVG/report-header-section.svg

<?xml version="1.0" encoding="utf-8"?>
<!-- Generator: Adobe Illustrator 24.2.0, SVG Export Plug-In . SVG Version: 6.00 Build 0)  -->
<svg version="1.1" id="Layer_1" xmlns="http://www.w3.org/2000/svg" xmlns:xlink="http://www.w3.org/1999/xlink" x="0px" y="0px"
	 width="512px" height="512px" viewBox="0 0 512 512" xml:space="preserve">
<path d="M416,32H96c-17.7,0-32,14.3-32,32v384c0,17.7,14.3,32,32,32h320c17.7,0,32-14.3,32-32V64C448,46.3,433.7,32,416,32z
	 M416,448H96V64h320V448z M384,384H128v-32h256V384z M384,288H128v32h256V288z M384,128H128v96h256V128z"/>
</svg>

<svg xmlns="http://www.w3.org/2000/svg" viewBox="0 0 512 512"><title>report-header-section</title><g id="reportHeader"><path d="M416,32H96A32,32,0,0,0,64,64V448a32,32,0,0,0,32,32H416a32,32,0,0,0,32-32V64A32,32,0,0,0,416,32Zm0,416H96V64H416Zm-32-64H128V352H384Zm0-96H128v32H384Zm0-160H128v96H384Z"/></g></svg>
